assets/ios/swift/Icons.xcassets/send.imageset/send.svg

<svg width="24" height="24" viewBox="0 0 24 24" fill="none" xmlns="http://www.w3.org/2000/svg">
<path fill-rule="evenodd" clip-rule="evenodd" d="M4.07005 20.9651L20.2111 12.8946C20.9482 12.526 20.9482 11.4742 20.2111 11.1057L4.07005 3.03519C3.2862 2.64327 2.41319 3.37755 2.66501 4.21697L4.91376 11.7128C4.96999 11.9002 4.96999 12.1001 4.91376 12.2875L2.66501 19.7833C2.41319 20.6227 3.2862 21.357 4.07005 20.9651ZM5.24571 5.85909L17.5278 12.0001L5.24571 18.1412L6.78803 13.0001L11.25 13.0001C11.8023 13.0001 12.25 12.5524 12.25 12.0001C12.25 11.4479 11.8023 11.0001 11.25 11.0001L6.78803 11.0001L5.24571 5.85909Z" fill="black"/>
</svg>

<svg xmlns="http://www.w3.org/2000/svg" width="24" height="24" fill="black" viewBox="0 0 24 24">
  <path fill-rule="evenodd" d="m4.07 20.965 16.141-8.07a1 1 0 0 0 0-1.79l-16.14-8.07c-.785-.392-1.658.342-1.406 1.182l2.249 7.496a1 1 0 0 1 0 .574l-2.249 7.496c-.252.84.621 1.574 1.405 1.182ZM5.246 5.859 17.528 12 5.246 18.141 6.788 13h4.462a1 1 0 1 0 0-2H6.788L5.246 5.859Z" clip-rule="evenodd"/>
</svg>
